report_00007_2020-12-11T15:55:29.892Z/network-rtt/comparison/line/2_vs_3.svg

<svg width="640" height="500" xmlns="http://www.w3.org/2000/svg" xmlns:xlink="http://www.w3.org/1999/xlink"><path fill="#fff" d="M0 0h640v500H0z"/><defs><path id="d" stroke-width=".222" stroke="currentColor" d="M-1-1h2v2h-2z"/><path id="b" stroke-width=".222" stroke="currentColor" d="M0-1.33l-1.33 2h2.66z"/><path id="f" stroke-width=".222" stroke="currentColor" d="M0 1.33L1.265.411.782-1.067l-1.564-.009-.483 1.487z"/><use xlink:href="#b" id="c" stroke="currentColor" transform="rotate(180)"/><use xlink:href="#d" id="e" stroke="currentColor" transform="rotate(45)"/><circle id="a" stroke-width=".222" stroke="currentColor" cx="0" cy="0" r="1"/></defs><g fill="none" color="#000" stroke="currentColor"><path stroke="#000" d="M53.9 446.3h9m552.1 0h-9"/><text transform="translate(45.6 450.2)" stroke="none" fill="#000" font-family="Arial" font-size="12" text-anchor="end"><tspan>0</tspan></text></g><g fill="none" color="#000" stroke="currentColor"><path stroke="#000" d="M53.9 402.4h9m552.1 0h-9"/><text transform="translate(45.6 406.3)" stroke="none" fill="#000" font-family="Arial" font-size="12" text-anchor="end"><tspan>0.5</tspan></text></g><g fill="none" color="#000" stroke="currentColor"><path stroke="#000" d="M53.9 358.5h9m552.1 0h-9"/><text transform="translate(45.6 362.4)" stroke="none" fill="#000" font-family="Arial" font-size="12" text-anchor="end"><tspan>1</tspan></text></g><g fill="none" color="#000" stroke="currentColor"><path stroke="#000" d="M53.9 314.6h9m552.1 0h-9"/><text transform="translate(45.6 318.5)" stroke="none" fill="#000" font-family="Arial" font-size="12" text-anchor="end"><tspan>1.5</tspan></text></g><g fill="none" color="#000" stroke="currentColor"><path stroke="#000" d="M53.9 270.7h9m552.1 0h-9"/><text transform="translate(45.6 274.6)" stroke="none" fill="#000" font-family="Arial" font-size="12" text-anchor="end"><tspan>2</tspan></text></g><g fill="none" color="#000" stroke="currentColor"><path stroke="#000" d="M53.9 226.8h9m552.1 0h-9"/><text transform="translate(45.6 230.7)" stroke="none" fill="#000" font-family="Arial" font-size="12" text-anchor="end"><tspan>2.5</tspan></text></g><g fill="none" color="#000" stroke="currentColor"><path stroke="#000" d="M53.9 182.9h9m552.1 0h-9"/><text transform="translate(45.6 186.8)" stroke="none" fill="#000" font-family="Arial" font-size="12" text-anchor="end"><tspan>3</tspan></text></g><g fill="none" color="#000" stroke="currentColor"><path stroke="#000" d="M53.9 139h9m552.1 0h-9"/><text transform="translate(45.6 142.9)" stroke="none" fill="#000" font-family="Arial" font-size="12" text-anchor="end"><tspan>3.5</tspan></text></g><g fill="none" color="#000" stroke="currentColor"><path stroke="#000" d="M53.9 95.1h9m552.1 0h-9"/><text transform="translate(45.6 99)" stroke="none" fill="#000" font-family="Arial" font-size="12" text-anchor="end"><tspan>4</tspan></text></g><g fill="none" color="#000" stroke="currentColor"><path stroke="#000" d="M53.9 51.3h9m552.1 0h-9"/><text transform="translate(45.6 55.2)" stroke="none" fill="#000" font-family="Arial" font-size="12" text-anchor="end"><tspan>4.5</tspan></text></g><g fill="none" color="#000" stroke="currentColor"><path stroke="#000" d="M53.9 446v-9m0-418.9v9"/><text transform="translate(53.9 467.9)" stroke="none" fill="#000" font-family="Arial" font-size="12" text-anchor="middle"><tspan>0</tspan></text></g><g fill="none" color="#000" stroke="currentColor"><path stroke="#000" d="M110.6 446v-9m0-418.9v9"/><text transform="translate(110.6 467.9)" stroke="none" fill="#000" font-family="Arial" font-size="12" text-anchor="middle"><tspan>10</tspan></text></g><g fill="none" color="#000" stroke="currentColor"><path stroke="#000" d="M167.3 446v-9m0-418.9v9"/><text transform="translate(167.3 467.9)" stroke="none" fill="#000" font-family="Arial" font-size="12" text-anchor="middle"><tspan>20</tspan></text></g><g fill="none" color="#000" stroke="currentColor"><path stroke="#000" d="M223.9 446v-9m0-418.9v9"/><text transform="translate(223.9 467.9)" stroke="none" fill="#000" font-family="Arial" font-size="12" text-anchor="middle"><tspan>30</tspan></text></g><g fill="none" color="#000" stroke="currentColor"><path stroke="#000" d="M280.6 446v-9m0-418.9v9"/><text transform="translate(280.6 467.9)" stroke="none" fill="#000" font-family="Arial" font-size="12" text-anchor="middle"><tspan>40</tspan></text></g><g fill="none" color="#000" stroke="currentColor"><path stroke="#000" d="M337.3 446v-9m0-418.9v9"/><text transform="translate(337.3 467.9)" stroke="none" fill="#000" font-family="Arial" font-size="12" text-anchor="middle"><tspan>50</tspan></text></g><g fill="none" color="#000" stroke="currentColor"><path stroke="#000" d="M394 446v-9m0-418.9v9"/><text transform="translate(394 467.9)" stroke="none" fill="#000" font-family="Arial" font-size="12" text-anchor="middle"><tspan>60</tspan></text></g><g fill="none" color="#000" stroke="currentColor"><path stroke="#000" d="M450.6 446v-9m0-418.9v9"/><text transform="translate(450.6 467.9)" stroke="none" fill="#000" font-family="Arial" font-size="12" text-anchor="middle"><tspan>70</tspan></text></g><g fill="none" color="#000" stroke="currentColor"><path stroke="#000" d="M507.3 446v-9m0-418.9v9"/><text transform="translate(507.3 467.9)" stroke="none" fill="#000" font-family="Arial" font-size="12" text-anchor="middle"><tspan>80</tspan></text></g><g fill="none" color="#000" stroke="currentColor"><path stroke="#000" d="M564 446v-9m0-418.9v9"/><text transform="translate(564 467.9)" stroke="none" fill="#000" font-family="Arial" font-size="12" text-anchor="middle"><tspan>90</tspan></text></g><path stroke="#000" d="M53.9 18.1V446H615V18.1H53.9z" fill="none" color="#000"/><text transform="translate(275.6 485.9)" stroke="none" fill="#000" font-family="Arial" font-size="12" text-anchor="end" color="#000"><tspan>pages+cached</tspan></text><path stroke="#9400D3" d="M283.9 482h42.2M53.9 26.3l5.7 408.1 5.6-238.6 5.7 236.3 5.7-9 5.6 14.4 5.7-12 5.7-12.5 5.6 12.2 5.7-.3 5.7-8.9 5.6-12.7 5.7 14.3 5.7 4.1 5.6-4.1 5.7 4.2 5.7 8.1 5.7 5.8 5.6 2.1 5.7-21.5 5.7 6.5 5.6-7.1 5.7 8.3 5.7-10.3 5.6.4 5.7 19.9 5.7-9.4 5.6-11.1 5.7 9.7 5.7-3.5 5.6-2.1 5.7 13.7 5.7.5 5.6-7.9 5.7-3.7 5.7 10.5 5.6-.8 5.7-8.7 5.7-8.1 5.6-1.3 5.7-.8 5.7 5.4 5.6-3.8 5.7 14.2 5.7-15.3 5.6 8.8 5.7-5.9 5.7 13.7 5.6-14.8 5.7 5.3 5.7-6.1 5.7 1.3 5.6 8.1 5.7 9.8 5.7-21.1 5.6 17.7 5.7-.2 5.7-15.2 5.6 2.2 5.7 20.6 5.7-17 5.6 2.3 5.7-2.3 5.7 1.9 5.6-8.1 5.7 21 5.7-11.4 5.6.7 5.7 4.9 5.7 4.2 5.6 5.2 5.7-10 5.7-10.8 5.6-1.3 5.7 18.8L479 415l5.6.2 5.7-5.2 5.7 5.4 5.6 3.1 5.7-6.2 5.7.3 5.6 20.9 5.7-.7 5.7.6 5.7-19 5.6-2.7 5.7 8.4 5.7-.8 5.6-9.5 5.7 11.4 5.7 11 5.6-21.1 5.7 10.4 5.7-10.2 5.6 3.2 5.7 1.7 5.7-4.9 5.6 25.3 5.7-20.4" fill="none" color="#000"/><text transform="translate(550.2 485.9)" stroke="none" fill="#000" font-family="Arial" font-size="12" text-anchor="end" color="#000"><tspan>pages+cached+nointeractive</tspan></text><path stroke="#009E73" d="M558.5 482h42.2M53.9 424.8l5.7-4 5.6-3.6 5.7-4.7 5.7-4.4 5.6 6.6 5.7 18.3 5.7-21.1 5.6 16.4 5.7-10.4 5.7 2.2 5.6-7.8 5.7 4.2 5.7.5 5.6-5.8 5.7 2.8 5.7-3.3 5.7 12.4 5.6-.9 5.7 1.9 5.7-7 5.6 4.6 5.7.4 5.7 10.3 5.6-13.5 5.7 3.3 5.7-7.7 5.6 16.1 5.7-17.8 5.7 3.5 5.6-1 5.7.9 5.7-.8 5.6 17.7 5.7-19.3 5.7 1.9 5.6-2.4 5.7-2 5.7 3.5 5.6-4.2 5.7 2.3 5.7 1.5 5.6-2.1 5.7-3.5 5.7 11.1 5.6-3.4 5.7-.5 5.7-2.3 5.6 1.2 5.7-.5 5.7-3.3 5.7 3.2 5.6-.1 5.7 11.9 5.7-17.3 5.6 2.1 5.7 14.5 5.7-12 5.6 8.5 5.7-7.9 5.7-3.4 5.6 7 5.7-2.8 5.7 13.1 5.6-4.9 5.7-1.6 5.7-8.1 5.6 10.5 5.7-10.8 5.7-9.4 5.6 11.8 5.7-3.6 5.7 2.9 5.6 19 5.7-7.3 5.7-15.7 5.6 3.3 5.7.8 5.7 13.4 5.6-8 5.7-1.3 5.7 3.8 5.6-7.5 5.7-3.7 5.7 8.3 5.7-8.6 5.6-.7 5.7 21.9 5.7-17.9 5.6-1.2 5.7 7.6 5.7 16.5 5.6-23.9 5.7-1.8 5.7 9.1 5.6-4.7 5.7 4.6 5.7-8.6 5.6 3.9 5.7 5.9" fill="none" color="#000"/><g fill="none" color="#000" stroke="currentColor"><path stroke="#000" d="M53.9 18.1V446H615V18.1H53.9z"/></g></svg>

<?xml version="1.0" encoding="utf-8"  standalone="no"?>
<svg 
 width="640" height="500"
 viewBox="0 0 640 500"
 xmlns="http://www.w3.org/2000/svg"
 xmlns:xlink="http://www.w3.org/1999/xlink"
>

<title>Gnuplot</title>
<desc>Produced by GNUPLOT 5.4 patchlevel 0 </desc>

<g id="gnuplot_canvas">

<rect x="0" y="0" width="640" height="500" fill="#ffffff"/>
<defs>

	<circle id='gpDot' r='0.5' stroke-width='0.5' stroke='currentColor'/>
	<path id='gpPt0' stroke-width='0.222' stroke='currentColor' d='M-1,0 h2 M0,-1 v2'/>
	<path id='gpPt1' stroke-width='0.222' stroke='currentColor' d='M-1,-1 L1,1 M1,-1 L-1,1'/>
	<path id='gpPt2' stroke-width='0.222' stroke='currentColor' d='M-1,0 L1,0 M0,-1 L0,1 M-1,-1 L1,1 M-1,1 L1,-1'/>
	<rect id='gpPt3' stroke-width='0.222' stroke='currentColor' x='-1' y='-1' width='2' height='2'/>
	<rect id='gpPt4' stroke-width='0.222' stroke='currentColor' fill='currentColor' x='-1' y='-1' width='2' height='2'/>
	<circle id='gpPt5' stroke-width='0.222' stroke='currentColor' cx='0' cy='0' r='1'/>
	<use xlink:href='#gpPt5' id='gpPt6' fill='currentColor' stroke='none'/>
	<path id='gpPt7' stroke-width='0.222' stroke='currentColor' d='M0,-1.33 L-1.33,0.67 L1.33,0.67 z'/>
	<use xlink:href='#gpPt7' id='gpPt8' fill='currentColor' stroke='none'/>
	<use xlink:href='#gpPt7' id='gpPt9' stroke='currentColor' transform='rotate(180)'/>
	<use xlink:href='#gpPt9' id='gpPt10' fill='currentColor' stroke='none'/>
	<use xlink:href='#gpPt3' id='gpPt11' stroke='currentColor' transform='rotate(45)'/>
	<use xlink:href='#gpPt11' id='gpPt12' fill='currentColor' stroke='none'/>
	<path id='gpPt13' stroke-width='0.222' stroke='currentColor' d='M0,1.330 L1.265,0.411 L0.782,-1.067 L-0.782,-1.076 L-1.265,0.411 z'/>
	<use xlink:href='#gpPt13' id='gpPt14' fill='currentColor' stroke='none'/>
	<filter id='textbox' filterUnits='objectBoundingBox' x='0' y='0' height='1' width='1'>
	  <feFlood flood-color='#FFFFFF' flood-opacity='1' result='bgnd'/>
	  <feComposite in='SourceGraphic' in2='bgnd' operator='atop'/>
	</filter>
	<filter id='greybox' filterUnits='objectBoundingBox' x='0' y='0' height='1' width='1'>
	  <feFlood flood-color='lightgrey' flood-opacity='1' result='grey'/>
	  <feComposite in='SourceGraphic' in2='grey' operator='atop'/>
	</filter>
</defs>
<g fill="none" color="#FFFFFF" stroke="black" stroke-width="1.00" stroke-linecap="butt" stroke-linejoin="miter">
</g>
<g fill="none" color="black" stroke="currentColor" stroke-width="1.00" stroke-linecap="butt" stroke-linejoin="miter">
	<path stroke='black'  d='M53.9,446.3 L62.9,446.3 M615.0,446.3 L606.0,446.3  '/>	<g transform="translate(45.6,450.2)" stroke="none" fill="black" font-family="Arial" font-size="12.00"  text-anchor="end">
		<text><tspan font-family="Arial" > 0</tspan></text>
	</g>
</g>
<g fill="none" color="black" stroke="currentColor" stroke-width="1.00" stroke-linecap="butt" stroke-linejoin="miter">
	<path stroke='black'  d='M53.9,402.4 L62.9,402.4 M615.0,402.4 L606.0,402.4  '/>	<g transform="translate(45.6,406.3)" stroke="none" fill="black" font-family="Arial" font-size="12.00"  text-anchor="end">
		<text><tspan font-family="Arial" > 0.5</tspan></text>
	</g>
</g>
<g fill="none" color="black" stroke="currentColor" stroke-width="1.00" stroke-linecap="butt" stroke-linejoin="miter">
	<path stroke='black'  d='M53.9,358.5 L62.9,358.5 M615.0,358.5 L606.0,358.5  '/>	<g transform="translate(45.6,362.4)" stroke="none" fill="black" font-family="Arial" font-size="12.00"  text-anchor="end">
		<text><tspan font-family="Arial" > 1</tspan></text>
	</g>
</g>
<g fill="none" color="black" stroke="currentColor" stroke-width="1.00" stroke-linecap="butt" stroke-linejoin="miter">
	<path stroke='black'  d='M53.9,314.6 L62.9,314.6 M615.0,314.6 L606.0,314.6  '/>	<g transform="translate(45.6,318.5)" stroke="none" fill="black" font-family="Arial" font-size="12.00"  text-anchor="end">
		<text><tspan font-family="Arial" > 1.5</tspan></text>
	</g>
</g>
<g fill="none" color="black" stroke="currentColor" stroke-width="1.00" stroke-linecap="butt" stroke-linejoin="miter">
	<path stroke='black'  d='M53.9,270.7 L62.9,270.7 M615.0,270.7 L606.0,270.7  '/>	<g transform="translate(45.6,274.6)" stroke="none" fill="black" font-family="Arial" font-size="12.00"  text-anchor="end">
		<text><tspan font-family="Arial" > 2</tspan></text>
	</g>
</g>
<g fill="none" color="black" stroke="currentColor" stroke-width="1.00" stroke-linecap="butt" stroke-linejoin="miter">
	<path stroke='black'  d='M53.9,226.8 L62.9,226.8 M615.0,226.8 L606.0,226.8  '/>	<g transform="translate(45.6,230.7)" stroke="none" fill="black" font-family="Arial" font-size="12.00"  text-anchor="end">
		<text><tspan font-family="Arial" > 2.5</tspan></text>
	</g>
</g>
<g fill="none" color="black" stroke="currentColor" stroke-width="1.00" stroke-linecap="butt" stroke-linejoin="miter">
	<path stroke='black'  d='M53.9,182.9 L62.9,182.9 M615.0,182.9 L606.0,182.9  '/>	<g transform="translate(45.6,186.8)" stroke="none" fill="black" font-family="Arial" font-size="12.00"  text-anchor="end">
		<text><tspan font-family="Arial" > 3</tspan></text>
	</g>
</g>
<g fill="none" color="black" stroke="currentColor" stroke-width="1.00" stroke-linecap="butt" stroke-linejoin="miter">
	<path stroke='black'  d='M53.9,139.0 L62.9,139.0 M615.0,139.0 L606.0,139.0  '/>	<g transform="translate(45.6,142.9)" stroke="none" fill="black" font-family="Arial" font-size="12.00"  text-anchor="end">
		<text><tspan font-family="Arial" > 3.5</tspan></text>
	</g>
</g>
<g fill="none" color="black" stroke="currentColor" stroke-width="1.00" stroke-linecap="butt" stroke-linejoin="miter">
	<path stroke='black'  d='M53.9,95.1 L62.9,95.1 M615.0,95.1 L606.0,95.1  '/>	<g transform="translate(45.6,99.0)" stroke="none" fill="black" font-family="Arial" font-size="12.00"  text-anchor="end">
		<text><tspan font-family="Arial" > 4</tspan></text>
	</g>
</g>
<g fill="none" color="black" stroke="currentColor" stroke-width="1.00" stroke-linecap="butt" stroke-linejoin="miter">
	<path stroke='black'  d='M53.9,51.3 L62.9,51.3 M615.0,51.3 L606.0,51.3  '/>	<g transform="translate(45.6,55.2)" stroke="none" fill="black" font-family="Arial" font-size="12.00"  text-anchor="end">
		<text><tspan font-family="Arial" > 4.5</tspan></text>
	</g>
</g>
<g fill="none" color="black" stroke="currentColor" stroke-width="1.00" stroke-linecap="butt" stroke-linejoin="miter">
	<path stroke='black'  d='M53.9,446.0 L53.9,437.0 M53.9,18.1 L53.9,27.1  '/>	<g transform="translate(53.9,467.9)" stroke="none" fill="black" font-family="Arial" font-size="12.00"  text-anchor="middle">
		<text><tspan font-family="Arial" > 0</tspan></text>
	</g>
</g>
<g fill="none" color="black" stroke="currentColor" stroke-width="1.00" stroke-linecap="butt" stroke-linejoin="miter">
	<path stroke='black'  d='M110.6,446.0 L110.6,437.0 M110.6,18.1 L110.6,27.1  '/>	<g transform="translate(110.6,467.9)" stroke="none" fill="black" font-family="Arial" font-size="12.00"  text-anchor="middle">
		<text><tspan font-family="Arial" > 10</tspan></text>
	</g>
</g>
<g fill="none" color="black" stroke="currentColor" stroke-width="1.00" stroke-linecap="butt" stroke-linejoin="miter">
	<path stroke='black'  d='M167.3,446.0 L167.3,437.0 M167.3,18.1 L167.3,27.1  '/>	<g transform="translate(167.3,467.9)" stroke="none" fill="black" font-family="Arial" font-size="12.00"  text-anchor="middle">
		<text><tspan font-family="Arial" > 20</tspan></text>
	</g>
</g>
<g fill="none" color="black" stroke="currentColor" stroke-width="1.00" stroke-linecap="butt" stroke-linejoin="miter">
	<path stroke='black'  d='M223.9,446.0 L223.9,437.0 M223.9,18.1 L223.9,27.1  '/>	<g transform="translate(223.9,467.9)" stroke="none" fill="black" font-family="Arial" font-size="12.00"  text-anchor="middle">
		<text><tspan font-family="Arial" > 30</tspan></text>
	</g>
</g>
<g fill="none" color="black" stroke="currentColor" stroke-width="1.00" stroke-linecap="butt" stroke-linejoin="miter">
	<path stroke='black'  d='M280.6,446.0 L280.6,437.0 M280.6,18.1 L280.6,27.1  '/>	<g transform="translate(280.6,467.9)" stroke="none" fill="black" font-family="Arial" font-size="12.00"  text-anchor="middle">
		<text><tspan font-family="Arial" > 40</tspan></text>
	</g>
</g>
<g fill="none" color="black" stroke="currentColor" stroke-width="1.00" stroke-linecap="butt" stroke-linejoin="miter">
	<path stroke='black'  d='M337.3,446.0 L337.3,437.0 M337.3,18.1 L337.3,27.1  '/>	<g transform="translate(337.3,467.9)" stroke="none" fill="black" font-family="Arial" font-size="12.00"  text-anchor="middle">
		<text><tspan font-family="Arial" > 50</tspan></text>
	</g>
</g>
<g fill="none" color="black" stroke="currentColor" stroke-width="1.00" stroke-linecap="butt" stroke-linejoin="miter">
	<path stroke='black'  d='M394.0,446.0 L394.0,437.0 M394.0,18.1 L394.0,27.1  '/>	<g transform="translate(394.0,467.9)" stroke="none" fill="black" font-family="Arial" font-size="12.00"  text-anchor="middle">
		<text><tspan font-family="Arial" > 60</tspan></text>
	</g>
</g>
<g fill="none" color="black" stroke="currentColor" stroke-width="1.00" stroke-linecap="butt" stroke-linejoin="miter">
	<path stroke='black'  d='M450.6,446.0 L450.6,437.0 M450.6,18.1 L450.6,27.1  '/>	<g transform="translate(450.6,467.9)" stroke="none" fill="black" font-family="Arial" font-size="12.00"  text-anchor="middle">
		<text><tspan font-family="Arial" > 70</tspan></text>
	</g>
</g>
<g fill="none" color="black" stroke="currentColor" stroke-width="1.00" stroke-linecap="butt" stroke-linejoin="miter">
	<path stroke='black'  d='M507.3,446.0 L507.3,437.0 M507.3,18.1 L507.3,27.1  '/>	<g transform="translate(507.3,467.9)" stroke="none" fill="black" font-family="Arial" font-size="12.00"  text-anchor="middle">
		<text><tspan font-family="Arial" > 80</tspan></text>
	</g>
</g>
<g fill="none" color="black" stroke="currentColor" stroke-width="1.00" stroke-linecap="butt" stroke-linejoin="miter">
	<path stroke='black'  d='M564.0,446.0 L564.0,437.0 M564.0,18.1 L564.0,27.1  '/>	<g transform="translate(564.0,467.9)" stroke="none" fill="black" font-family="Arial" font-size="12.00"  text-anchor="middle">
		<text><tspan font-family="Arial" > 90</tspan></text>
	</g>
</g>
<g fill="none" color="black" stroke="currentColor" stroke-width="1.00" stroke-linecap="butt" stroke-linejoin="miter">
</g>
<g fill="none" color="black" stroke="currentColor" stroke-width="1.00" stroke-linecap="butt" stroke-linejoin="miter">
	<path stroke='black'  d='M53.9,18.1 L53.9,446.0 L615.0,446.0 L615.0,18.1 L53.9,18.1 Z  '/></g>
<g fill="none" color="black" stroke="currentColor" stroke-width="1.00" stroke-linecap="butt" stroke-linejoin="miter">
</g>
	<g id="gnuplot_plot_1" ><title>pages+cached</title>
<g fill="none" color="black" stroke="currentColor" stroke-width="1.00" stroke-linecap="butt" stroke-linejoin="miter">
	<g transform="translate(275.6,485.9)" stroke="none" fill="black" font-family="Arial" font-size="12.00"  text-anchor="end">
		<text><tspan font-family="Arial" >pages+cached</tspan></text>
	</g>
</g>
<g fill="none" color="black" stroke="currentColor" stroke-width="1.00" stroke-linecap="butt" stroke-linejoin="miter">
	<path stroke='rgb(148,   0, 211)'  d='M283.9,482.0 L326.1,482.0 M53.9,26.3 L59.6,434.4 L65.2,195.8 L70.9,432.1 L76.6,423.1 L82.2,437.5
		L87.9,425.5 L93.6,413.0 L99.2,425.2 L104.9,424.9 L110.6,416.0 L116.2,403.3 L121.9,417.6 L127.6,421.7
		L133.2,417.6 L138.9,421.8 L144.6,429.9 L150.3,435.7 L155.9,437.8 L161.6,416.3 L167.3,422.8 L172.9,415.7
		L178.6,424.0 L184.3,413.7 L189.9,414.1 L195.6,434.0 L201.3,424.6 L206.9,413.5 L212.6,423.2 L218.3,419.7
		L223.9,417.6 L229.6,431.3 L235.3,431.8 L240.9,423.9 L246.6,420.2 L252.3,430.7 L257.9,429.9 L263.6,421.2
		L269.3,413.1 L274.9,411.8 L280.6,411.0 L286.3,416.4 L291.9,412.6 L297.6,426.8 L303.3,411.5 L308.9,420.3
		L314.6,414.4 L320.3,428.1 L325.9,413.3 L331.6,418.6 L337.3,412.5 L343.0,413.8 L348.6,421.9 L354.3,431.7
		L360.0,410.6 L365.6,428.3 L371.3,428.1 L377.0,412.9 L382.6,415.1 L388.3,435.7 L394.0,418.7 L399.6,421.0
		L405.3,418.7 L411.0,420.6 L416.6,412.5 L422.3,433.5 L428.0,422.1 L433.6,422.8 L439.3,427.7 L445.0,431.9
		L450.6,437.1 L456.3,427.1 L462.0,416.3 L467.6,415.0 L473.3,433.8 L479.0,415.0 L484.6,415.2 L490.3,410.0
		L496.0,415.4 L501.6,418.5 L507.3,412.3 L513.0,412.6 L518.6,433.5 L524.3,432.8 L530.0,433.4 L535.7,414.4
		L541.3,411.7 L547.0,420.1 L552.7,419.3 L558.3,409.8 L564.0,421.2 L569.7,432.2 L575.3,411.1 L581.0,421.5
		L586.7,411.3 L592.3,414.5 L598.0,416.2 L603.7,411.3 L609.3,436.6 L615.0,416.2  '/></g>
	</g>
	<g id="gnuplot_plot_2" ><title>pages+cached+nointeractive</title>
<g fill="none" color="black" stroke="currentColor" stroke-width="1.00" stroke-linecap="butt" stroke-linejoin="miter">
	<g transform="translate(550.2,485.9)" stroke="none" fill="black" font-family="Arial" font-size="12.00"  text-anchor="end">
		<text><tspan font-family="Arial" >pages+cached+nointeractive</tspan></text>
	</g>
</g>
<g fill="none" color="black" stroke="currentColor" stroke-width="1.00" stroke-linecap="butt" stroke-linejoin="miter">
	<path stroke='rgb(  0, 158, 115)'  d='M558.5,482.0 L600.7,482.0 M53.9,424.8 L59.6,420.8 L65.2,417.2 L70.9,412.5 L76.6,408.1 L82.2,414.7
		L87.9,433.0 L93.6,411.9 L99.2,428.3 L104.9,417.9 L110.6,420.1 L116.2,412.3 L121.9,416.5 L127.6,417.0
		L133.2,411.2 L138.9,414.0 L144.6,410.7 L150.3,423.1 L155.9,422.2 L161.6,424.1 L167.3,417.1 L172.9,421.7
		L178.6,422.1 L184.3,432.4 L189.9,418.9 L195.6,422.2 L201.3,414.5 L206.9,430.6 L212.6,412.8 L218.3,416.3
		L223.9,415.3 L229.6,416.2 L235.3,415.4 L240.9,433.1 L246.6,413.8 L252.3,415.7 L257.9,413.3 L263.6,411.3
		L269.3,414.8 L274.9,410.6 L280.6,412.9 L286.3,414.4 L291.9,412.3 L297.6,408.8 L303.3,419.9 L308.9,416.5
		L314.6,416.0 L320.3,413.7 L325.9,414.9 L331.6,414.4 L337.3,411.1 L343.0,414.3 L348.6,414.2 L354.3,426.1
		L360.0,408.8 L365.6,410.9 L371.3,425.4 L377.0,413.4 L382.6,421.9 L388.3,414.0 L394.0,410.6 L399.6,417.6
		L405.3,414.8 L411.0,427.9 L416.6,423.0 L422.3,421.4 L428.0,413.3 L433.6,423.8 L439.3,413.0 L445.0,403.6
		L450.6,415.4 L456.3,411.8 L462.0,414.7 L467.6,433.7 L473.3,426.4 L479.0,410.7 L484.6,414.0 L490.3,414.8
		L496.0,428.2 L501.6,420.2 L507.3,418.9 L513.0,422.7 L518.6,415.2 L524.3,411.5 L530.0,419.8 L535.7,411.2
		L541.3,410.5 L547.0,432.4 L552.7,414.5 L558.3,413.3 L564.0,420.9 L569.7,437.4 L575.3,413.5 L581.0,411.7
		L586.7,420.8 L592.3,416.1 L598.0,420.7 L603.7,412.1 L609.3,416.0 L615.0,421.9  '/></g>
	</g>
<g fill="none" color="#FFFFFF" stroke="rgb(  0, 158, 115)" stroke-width="2.00" stroke-linecap="butt" stroke-linejoin="miter">
</g>
<g fill="none" color="black" stroke="currentColor" stroke-width="2.00" stroke-linecap="butt" stroke-linejoin="miter">
</g>
<g fill="none" color="black" stroke="black" stroke-width="1.00" stroke-linecap="butt" stroke-linejoin="miter">
</g>
<g fill="none" color="black" stroke="currentColor" stroke-width="1.00" stroke-linecap="butt" stroke-linejoin="miter">
	<path stroke='black'  d='M53.9,18.1 L53.9,446.0 L615.0,446.0 L615.0,18.1 L53.9,18.1 Z  '/></g>
<g fill="none" color="black" stroke="currentColor" stroke-width="1.00" stroke-linecap="butt" stroke-linejoin="miter">
</g>
</g>
</svg>
